X: 1952
T:Snow Deer
R:Square Dance Tune
M:C|
Z:<http://tunes.nhcountrydance.com>.
K:D
A2d2e2|\
"D"f2fe f2fe| f2d2 c2d2| "E" [e4e4] [e2e2] ef | e2d2 c2B2| \
  "A7"A4 e4-| e2e2 c2B2| "D"A4 f2>g| f2A2 d2e2|
"D"f2fe f2fe| f2d2 c2d2| "E"[e4e4] [e2e2] ef | e2d2 c2B2| \
  "A7"A4 e4-| e2d2 e2f2| "D"d8- | d2 d2 "D7"e2f2|]
"G"g4 B4-| B2d2 c2B2| "D"A4 f2>g| f6 fg| \
   "A"f2e2 e2 ^d2| e6 ef| "D"e2d2 c2 B2|A2d2 "D7"e2f2|
"G"g4 B4-| B2d2 c2B2| "D"A4 f2>g| f6 fg| \
   "A7"f2e2 e2 f2|g2g2 B2c2| "D"d4 d2>e | d2|]
